X: 1
T: Farewell To The Creeks
M: 6/8
L: 1/8
R: jig
K: Amix
R: march
C: Pipe Major James 'Pipie' Robertson
|: a |
e2 c c>Bc | d>ef e2 d | c2 e A2 e | e>dc B2 a |
e>dc c2 c | dd/e/f e2 d | c>de e>dc | B3 A2 :|
|: f |
e2 e f<ag | f2 d e2 A | c<Ae ceA | d>cd B2 f |
e>ce f<ag | f>df e>cA | c2 e e>dc |B3 A2 :|
|: a |
c2 A d>ef | c2 e c>BA | d2 f c2 e | e>dc B2 A |
c3 d3 | c<ec c>BA | c>de e>dc | B3 A2 :|
|: e |
a2 e f2 a | e2 f e>cA | dAf c>de | e<dc B2 e |
a2 e f<af | e2 f e>cA | c2 e e>dc | B3 A2 :|
